X:1
T:Polkett frn Loshult
T:(3. Klarinett i B)
R:Polkett
Z:2009-01-10
O:Loshult, Skne
S:efter Per Mjrnemark
M:2/4
L:1/8
K:A
E |: EC EA | A2 A2 | EE FG | AA AE | EC EA |
A2 A2 | GE GE | AA A E :: E1/2F1/2E A,E | EB, E2 | E1/2F1/2E DD |
CD EA | E1/2F1/2E A,E | E1/2F1/2E GE | AA A E :|
